src/assets/svg/typescript-logo.svg

<svg width="66" height="66" viewBox="0 0 66 66" fill="none" xmlns="http://www.w3.org/2000/svg">
<g clip-path="url(#clip0_351_1754)">
<path d="M5.15625 0H60.8438C63.6915 0 66 2.30845 66 5.15625V60.8438C66 63.6915 63.6915 66 60.8438 66H5.15625C2.30845 66 0 63.6915 0 60.8438V5.15625C0 2.30845 2.30845 0 5.15625 0Z" fill="#3178C6"/>
<path d="M38.8054 51.685V58.8057C39.9635 59.3992 41.3333 59.8442 42.9144 60.141C44.4956 60.4377 46.1621 60.5859 47.9142 60.5859C49.6214 60.5859 51.2436 60.4227 52.7802 60.0964C54.3167 59.77 55.6643 59.2322 56.8221 58.4832C57.9802 57.734 58.897 56.7548 59.5727 55.5457C60.2482 54.3368 60.5859 52.8423 60.5859 51.0621C60.5859 49.7715 60.3928 48.6402 60.0069 47.6685C59.6252 46.7034 59.0576 45.8226 58.3365 45.0762C57.6092 44.3195 56.7368 43.641 55.72 43.04C54.7029 42.4393 53.5559 41.8718 52.279 41.3379C51.3436 40.952 50.505 40.5776 49.7625 40.2141C49.0202 39.8506 48.3891 39.4799 47.8696 39.1014C47.3498 38.7232 46.9489 38.3225 46.6669 37.8997C46.3849 37.4769 46.2438 36.9987 46.2438 36.4645C46.2438 35.9749 46.3699 35.5338 46.6223 35.1406C46.8747 34.7475 47.2313 34.41 47.6914 34.1282C48.1516 33.8461 48.7157 33.6275 49.384 33.4715C50.052 33.3158 50.7945 33.238 51.611 33.238C52.205 33.238 52.8322 33.2826 53.4927 33.3715C54.1535 33.4605 54.8179 33.5976 55.4861 33.7832C56.1523 33.9679 56.8036 34.2022 57.4347 34.4842C58.0466 34.7554 58.6319 35.0831 59.1829 35.4631V28.8098C58.0991 28.3944 56.9149 28.0866 55.6308 27.8863C54.3466 27.686 52.873 27.5859 51.2101 27.5859C49.5175 27.5859 47.9142 27.7677 46.3998 28.1312C44.8854 28.4945 43.5528 29.0619 42.4022 29.8333C41.2515 30.6049 40.3422 31.5877 39.674 32.7819C39.006 33.9761 38.6719 35.4038 38.6719 37.0654C38.6719 39.1867 39.2842 40.9966 40.5093 42.495C41.7342 43.9931 43.5935 45.2616 46.0879 46.3C47.0087 46.675 47.9219 47.0683 48.8271 47.4795C49.6735 47.8652 50.4047 48.2656 51.0208 48.6809C51.637 49.0963 52.1232 49.5487 52.4795 50.0383C52.8358 50.5279 53.014 51.0843 53.014 51.7074C53.0169 52.1558 52.9017 52.5972 52.6799 52.9869C52.4574 53.3798 52.1194 53.7212 51.6667 54.0104C51.2139 54.2997 50.6496 54.5258 49.9741 54.689C49.2986 54.8522 48.5079 54.9339 47.6022 54.9339C46.0582 54.9339 44.5291 54.6632 43.0147 54.1215C41.5001 53.5801 40.0971 52.768 38.8054 51.685ZM26.9368 33.9647H36.0938V28.1016H10.5703V33.9647H19.6827V60.0703H26.9368V33.9647Z" fill="white"/>
</g>
<defs>
<clipPath id="clip0_351_1754">
<rect width="66" height="66" fill="white"/>
</clipPath>
</defs>
</svg>

<svg width="66" height="66" fill="none" xmlns="http://www.w3.org/2000/svg"><g clip-path="url(#a)"><path d="M5.156 0h55.688A5.156 5.156 0 0 1 66 5.156v55.688A5.156 5.156 0 0 1 60.844 66H5.156A5.156 5.156 0 0 1 0 60.844V5.156A5.156 5.156 0 0 1 5.156 0z" fill="#3178C6"/><path d="M38.805 51.685v7.12c1.159.594 2.528 1.04 4.11 1.336 1.58.297 3.247.445 5 .445 1.706 0 3.329-.163 4.865-.49 1.537-.326 2.884-.864 4.042-1.613a8.225 8.225 0 0 0 2.75-2.937c.676-1.21 1.014-2.704 1.014-4.484 0-1.29-.193-2.422-.58-3.393a7.927 7.927 0 0 0-1.67-2.593c-.727-.757-1.6-1.435-2.616-2.036a28.05 28.05 0 0 0-3.441-1.702 43.401 43.401 0 0 1-2.517-1.124 12.744 12.744 0 0 1-1.892-1.113c-.52-.378-.921-.779-1.203-1.201a2.527 2.527 0 0 1-.423-1.435c0-.49.126-.931.378-1.324.253-.393.61-.731 1.07-1.013.46-.282 1.024-.5 1.692-.657a9.825 9.825 0 0 1 2.227-.233 14.849 14.849 0 0 1 3.875.545 13.84 13.84 0 0 1 1.949.701c.612.271 1.197.6 1.748.98V28.81a17.399 17.399 0 0 0-3.552-.924c-1.284-.2-2.758-.3-4.42-.3-1.694 0-3.297.182-4.811.545-1.515.363-2.847.93-3.998 1.702a8.51 8.51 0 0 0-2.728 2.949c-.668 1.194-1.002 2.622-1.002 4.283 0 2.122.612 3.932 1.837 5.43 1.225 1.498 3.084 2.767 5.579 3.805.92.375 1.834.768 2.74 1.18.845.385 1.577.786 2.193 1.2.616.416 1.102.869 1.459 1.358.356.49.534 1.046.534 1.67.003.448-.112.89-.334 1.279-.223.393-.56.734-1.013 1.023-.453.29-1.017.516-1.693.679-.675.163-1.466.245-2.372.245-1.544 0-3.073-.27-4.587-.813a13.692 13.692 0 0 1-4.21-2.436zm-11.868-17.72h9.157v-5.863H10.57v5.863h9.113V60.07h7.254V33.965z" fill="#fff"/></g><defs><clipPath id="a"><path fill="#fff" d="M0 0h66v66H0z"/></clipPath></defs></svg>
